X:247
T:Lad O'Beirne's Favourite
R:reel
Z:transcribed by Dave Marshall
M:C|
K:D
| d~F3 AFEF | dFBF A2AF | d~F3 AFEF | DBBA B3F |
d~F3 AFEF | dFBF A2Bc | dBcA BAFE | DBBA B3A |
d2fd edef | d2fd faa2 | d2fd edad | BdcA BAFA |
d2fd edef | d2fd faa2 | b2af gfed | BdcA B4 |
